symbols/web/window/materialsymbolssharp/window_wght500_20px.svg

<svg xmlns="http://www.w3.org/2000/svg" height="20" width="20"><path d="M1.5 18.5v-17h17v17Zm7.625-9.375V3.479H3.479v5.646Zm0 1.75H3.479v5.646h5.646Zm1.75 0v5.646h5.646v-5.646Zm0-1.75h5.646V3.479h-5.646Z"/></svg>

<svg xmlns="http://www.w3.org/2000/svg" height="20" width="20"><path d="M1.5 18.5V1.5H18.5V18.5ZM9.125 9.125V3.479H3.479V9.125ZM9.125 10.875H3.479V16.521H9.125ZM10.875 10.875V16.521H16.521V10.875ZM10.875 9.125H16.521V3.479H10.875Z"/></svg>
